Adwaita++/actions/symbolic/image-red-eye-symbolic.svg

<svg height="16" width="16" xmlns="http://www.w3.org/2000/svg">
  <g fill="#474747">
    <path d="m8 3c-.4908 0-.9533.0455-1.3906.1094l1.9531 1.9531a3 3 0 0 1 2.3885 2.3887l3.164 3.1638c1.345-1.2859 1.885-2.615 1.885-2.615s-2-5-8-5zm-3.7285.7715c-3.1221 1.3905-4.2715 4.2285-4.2715 4.2285s2 5 8 5c1.8188 0 3.267-.468 4.398-1.102l-2.043-2.0425a3 3 0 0 1 -2.355 1.1445 3 3 0 0 1 -3-3 3 3 0 0 1 1.1426-2.3574z"/>
    <path d="m2.5 1 12.5 12.5-1.5 1.5-12.5-12.5z"/>
  </g>
</svg>

<svg xmlns="http://www.w3.org/2000/svg" width="16" height="16" version="1.1">
 <path style="fill:#474747" d="M 8,3 C 7.5092,3 7.0467,3.0455 6.6094,3.1094 L 8.5625,5.0625 A 3,3 0 0 1 10.951,7.4512 L 14.115,10.615 C 15.46,9.3291 16,8 16,8 16,8 14,3 8,3 Z M 4.2715,3.7715 C 1.1494,5.162 0,8 0,8 0,8 2,13 8,13 9.8188,13 11.267,12.532 12.398,11.898 L 10.355,9.8555 A 3,3 0 0 1 8,11 3,3 0 0 1 5,8 3,3 0 0 1 6.1426,5.6426 Z"/>
 <path style="fill:#474747" d="M 2.5,1 15,13.5 13.5,15 1,2.5 Z"/>
</svg>
